X:1
T:[ID 1-141b], [ID 2-11a](Trio)
T:[ID 1-141b], [ID 2-11a](Trio)
T:Bezeichnung standardisiert: Menuet [mit Trio] Menuet Con Trio nro 1.
T:Urheber unbekannt Erstbeleg: vor 1767 (Datum in der schriftlichen Quelle) Datum in der hier transkribierten schriftlichen Quelle: 1792
C:Urheber unbekannt
C:Erstbeleg: vor 1767 (Datum in der schriftlichen Quelle)
C:Datum in der hier transkribierten schriftlichen Quelle: 1792
L:1/8
M:3/4
K:D
V:1 treble 
V:1
 D2 F2 A2 | d4 (3def | fe e2 (3efg | gf f4 | D2 FDFA | d4 (3def | edcBA^G | A6 :: a3 gfa | g2 e4 | %10
 g3 fge | fgaf d2 | b3 bag | a2 bc' d'2 | egfedc | d6 :|[M:3/4]"^Trio" !fermata!A2 A2 A2 | %17
 B2 B2 B2 | g4 ec | dfaf d2 | A2 A2 A2 | B2 B2 B2 | g4 ec | d6 :: a4 fd | a4 ec | a4 fd | edcBAG | %28
 A2 A2 A2 | B2 B2 B2 | g4 ec | d6 :| %32

